X:94404
T:We Will Rock You
Q:1/4=90
K:HP
M:4/4
L:1/8
R:March
U: R = ///
U: r = //
U: V = !accent!
V:M gstem=up stem=down name="Melody" sname="Melody"
V:H gstem=up stem=down name="Harmony" sname="Harmony"
V:C gstem=up stem=down name="C-Harmony" sname=C-Harmony"
V:S gstem=up stem=down dyn=up stafflines=1 clef=perc middle=G name="Snare" sname="Snare" sname="Snare"
V:B gstem=up stem=down clef=none dyn=up name="Bass" sname="Bass"
V:T gstem=up stem=down clef=none dyn=up name="Tenor" sname="Tenor"
V:BB gstem=up stem=down name="Brass Bass" sname="ABCD-C" transpose=-1  octave=-1 clef=bass
V:BC gstem=up stem=down name="Brass Chord" sname="ABCD-D" transpose=-1
V:BD gstem=up stem=down name="Brass Chord 2" sname="ABCD-B" transpose=-1
V:P gstem=up stem=down name="Piano" octave=-1
%%MIDI gracedivider 4
% %MIDI gchord
%%MIDI beatstring 
I:percmap C D 52 triangle
I:percmap A * 60 x
I:percmap c * 47 diamond
%%map drummap C print=D heads=triangle
%%map drummap A heads=x_head
%%map drummap c heads=diamond
%%score {M H}
V:B
%%MIDI vol 100
%%MIDI channel 10
V:S
%%MIDI vol 100
%%MIDI channel 10
%%MIDI drumon
[V:B]||"Drum Solo" AA z2 AA z2 | AA z2 AA z2 | AA z2 AA z2 | AA z2 AA z2  || $
[V:S]||z2 c2 z2 c2 | z2 c2 z2 c2 | z2 c2 z2 c2 | z2 c2 z2 c2  || $
[V:B]|: AA z2 AA z2 | AA z2 AA z2 | AA z2 AA z2 | AA z2 AA z2  | $
[V:S]|:z2 c2 z2 c2 | z2 c2 z2 c2 | z2 c2 z2 c2 | z2 c2 z2 c2  | $
[V:B] AA z2 AA z2 | AA z2 AA z2 | AA z2 AA z2 | AA z2 AA z2  :| $
[V:S]z2 c2 z2 c2 | z2 c2 z2 c2 | z2 c2 z2 c2 | z2 c2 z2 c2  :| $
[V:B]|| AA z2 AA z2 | AA z2 AA z2 | AA z2 AA z2 | AA z2 AA z2  | $
[V:S]||z2 c2 z2 c2 | z2 c2 z2 c2 | z2 c2 z2 c2 | z2 c2 z2 c2  | $
[V:B] AA z2 AA z2 | AA z2 AA z2 | AA z2 AA z2 | AA z2 AA z2  |] $
[V:S]z2 c2 z2 c2 | z2 c2 z2 c2 | z2 c2 z2 c2 | z2 c2 z2 c2  |] $
V:M
%%MIDI program 110
%%MIDI vol 60
V:H
%%MIDI program 110
%%MIDI vol 60
[V:M]||                                                "drum solo"Z | Z | Z | Z || $
[V:H]||                                                "drum solo"Z | Z | Z | Z || $
%%MIDI droneon
[V:M]|:{g}d/e/{A}e/d/ {g}e{A}e/d/ {g}e{A}e {g}d/e/{A}e/d/ |{g}e{A}e/d/ {g}e/d/e ag {f}gB/d/ | 
[V:H]|:{g}d/e/{A}e/d/ {g}e{A}e/d/ {g}e{A}e {g}d/e/{A}e/d/ |{g}e{A}e/d/ {g}e/d/e ag {f}gB/d/ | 
[V:M]  {g}e/{A}ed/ {g}e>d {g}e{A}e {G}e2 | {g}e/d/{g}d {G}d{g}d/e/ {g}B/A/G {g}AB/d/ |  $
[V:H]  {g}e/{A}ed/ {g}e>d {g}e{A}e {G}e2 | {g}e/d/{g}d {G}d{g}d/e/ {g}B/A/G {g}AB/d/ |  $
[V:M]  {gf}g2 f2 {gef}e2 d2 | {g}e{A}e z2 z4 |
[V:H]  {gef}e2 d2 {gcd}c2 B2 | {g}c{G}c z2 z4 | 
[V:M]  {gf}g2 f2 {gef}e2 d2 | {g}e{A}e z2 z4 :| $
[V:H]  {gef}e2 d2 {gcd}c2 B2 | {g}c{G}c z2 z4 :| $
[V:M][|{g}d/e/{A}e/d/ {g}e{A}e/d/ {g}e{A}e {g}d/e/{A}e/d/ |{g}e{A}e/d/ {g}e/d/e ag {f}gB/d/ | 
[V:H][|{g}d/e/{A}e/d/ {g}e{A}e/d/ {g}e{A}e {g}d/e/{A}e/d/ |{g}e{A}e/d/ {g}e/d/e ag {f}gB/d/ | 
[V:M]  {g}e/{A}ed/ {g}e>d {g}e{A}e {G}e2 | {g}e/d/{g}d {G}d{g}d/e/ {g}B/A/G {g}AB/d/ | $
[V:H]  {g}e/{A}ed/ {g}e>d {g}e{A}e {G}e2 | {g}e/d/{g}d {G}d{g}d/e/ {g}B/A/G {g}AB/d/ | $
[V:M]  {gf}g2 f2 {gef}e2 d2 | {g}e{A}e z2 z4 |
[V:H]  {gef}e2 d2 {gcd}c2 B2 | {g}c{G}c z2 z {g}A{d}ce |
[V:M]  {gf}g2 f2 {gef}e2 d2 | {g}e{A}e z2 z4  |]
[V:H]  {gef}e2 d2 {gcd}c2 B2 | {g}c{G}c z2 z4  |] $


